raw/symbols/rbtc.svg

<svg width="42" height="42" viewBox="0 0 42 42" fill="none" xmlns="http://www.w3.org/2000/svg">
<path d="M20.995 42C9.38026 42 0 32.5942 0 21C0 9.40576 9.40354 0 20.995 0C32.5865 0 41.9901 9.40576 41.9901 21C41.9668 32.5942 32.5865 42 20.995 42Z" fill="#FF9931"/>
<path d="M39.4298 9.32517C38.205 8.78786 36.8942 8.46547 35.562 8.40099C34.4017 8.33651 33.2628 8.57293 32.2314 9.11025C32.038 9.21771 31.8446 9.32517 31.6727 9.45413C30.1256 10.5288 29.2801 12.2482 28.8934 13.5592L28.6936 14.3L29.3091 13.9L32.0165 12.5C32.5322 12.2206 33.1983 12.3127 33.4777 12.8285L33.4992 12.85C33.5207 12.893 33.5207 12.9145 33.5421 12.9574L39.8165 9.47562C39.7521 9.45413 39.4942 9.34667 39.4298 9.32517Z" fill="#006E3C"/>
<path d="M38.4408 13.5162C35.325 18.653 29.8027 16.0953 29.8027 16.0953L31.8011 15.0207C31.973 14.9132 33.0474 14.3544 33.0474 14.3544C33.5631 14.075 33.7565 13.4302 33.4986 12.8929L39.816 9.47559C39.6655 10.9156 39.1928 12.2911 38.4408 13.5162Z" fill="#06B23C"/>
<path d="M41.506 7.8637C41.2267 7.69176 38.7127 6.27324 35.6399 6.14429C34.0928 6.05832 32.5672 6.4022 31.192 7.13295C30.7622 7.36937 30.3755 7.62728 29.9887 7.92818C27.2168 10.1419 26.5077 13.7312 26.3143 15.3002L26.2928 15.4291L26.1854 15.4936L25.3688 15.9235C24.5738 15.1712 23.6069 14.6124 22.554 14.3115L22.4036 14.2685L23.2201 11.0446L21.2862 10.5503L20.4697 13.7527L19.0085 13.3658L19.8036 10.1634L17.8697 9.66909L17.0746 12.85C14.7325 12.2482 13.2283 11.8613 13.2283 11.8613C13.2283 11.8613 12.906 13.4733 12.7556 13.8602C12.7556 13.8602 13.1424 13.9461 13.5722 14.0751C13.8515 14.1611 15.2267 14.3115 14.7755 16.0094C14.5176 16.9766 13.0135 23.4029 12.8845 23.8328C12.7556 24.3486 12.6267 24.628 11.9821 24.4991L10.435 24.1552L9.46802 26.4549C9.81182 26.5838 11.0366 26.8632 13.3358 27.4436L12.5193 30.6245L14.4531 31.1188L15.2482 27.9379L16.7093 28.3248L15.9143 31.5057L17.8482 32L18.6647 28.7761C20.8994 29.1845 22.1887 29.0555 22.511 29.0125C24.3804 28.6686 25.1755 27.2286 25.5193 25.8531C26.4862 21.9844 23.306 21.6405 23.7143 21.5546C25.4978 21.1892 26.3573 19.4913 26.2498 17.9653L27.1523 17.4709L27.2598 17.4065L27.3672 17.4709C28.9788 18.3306 30.7408 18.825 32.5457 18.9324C33.835 18.9969 35.1242 18.739 36.306 18.2232C36.4779 18.1587 36.6284 18.0727 36.7788 17.9868C41.3127 15.5366 41.9143 9.58312 41.9573 8.91684L42.0003 8.22908L41.506 7.8637ZM21.7374 25.0364C21.2003 27.1427 17.6333 26.0895 17.6333 26.0895L15.9358 25.6597L16.9887 21.4256L19.0085 21.9414C19.03 21.9414 22.3391 22.6722 21.7374 25.0364ZM22.3821 18.739C21.8879 20.6734 18.9226 19.7707 18.9226 19.7707L17.5044 19.4053L18.4713 15.5366L20.1688 15.9664C20.1688 15.9879 22.9407 16.5682 22.3821 18.739ZM39.7441 9.6476V9.66909C39.4217 11.4315 38.4978 14.5909 35.8548 16.0094L35.7903 16.0524C34.8449 16.5253 33.7705 16.7617 32.7176 16.6972C31.9226 16.6542 31.1275 16.5253 30.3755 16.2673L29.8168 16.0954L30.3325 15.816L33.0829 14.3545C33.3408 14.2255 33.5341 13.9891 33.6201 13.7097C33.6416 13.6237 33.6631 13.5163 33.6631 13.4303C33.6631 13.2799 33.6416 13.1079 33.5771 12.979C33.5556 12.936 33.5556 12.9145 33.5341 12.8715L33.5127 12.85C33.2333 12.3342 32.5672 12.1407 32.0515 12.4202L29.3441 13.8817L28.7639 14.1181L28.9358 13.5593C29.3226 12.2482 30.1176 10.5503 31.6647 9.45416C31.8366 9.32521 32.03 9.21774 32.2234 9.11028C33.2548 8.57296 34.3936 8.33654 35.554 8.40102C36.8862 8.4655 38.197 8.78789 39.4217 9.32521C39.4862 9.3467 39.5507 9.36819 39.5936 9.41118L39.7655 9.49715L39.7441 9.6476Z" fill="white"/>
</svg>

<svg xmlns="http://www.w3.org/2000/svg" width="42" height="42" fill="none"><path fill="#FF9931" d="M20.995 42C9.38 42 0 32.594 0 21S9.404 0 20.995 0C32.586 0 41.99 9.406 41.99 21c-.023 11.594-9.404 21-20.995 21Z"/><path fill="#006E3C" d="M39.43 9.325a10.963 10.963 0 0 0-3.868-.924 6.396 6.396 0 0 0-3.33.71 4.855 4.855 0 0 0-.56.343c-1.546 1.075-2.392 2.794-2.779 4.105l-.2.741.616-.4 2.707-1.4c.516-.28 1.182-.187 1.462.329l.021.021c.022.043.022.065.043.107l6.274-3.481c-.064-.022-.322-.13-.386-.15Z"/><path fill="#06B23C" d="M38.44 13.516c-3.115 5.137-8.637 2.58-8.637 2.58L31.8 15.02a47.842 47.842 0 0 1 1.246-.667c.516-.279.71-.924.452-1.461l6.317-3.417a9.628 9.628 0 0 1-1.375 4.04Z"/><path fill="#fff" d="M41.506 7.864c-.28-.172-2.793-1.59-5.866-1.72a8.449 8.449 0 0 0-4.448.989c-.43.236-.817.494-1.203.795-2.772 2.214-3.481 5.803-3.675 7.372l-.021.13-.108.064-.816.43a6.844 6.844 0 0 0-2.815-1.612l-.15-.043.816-3.224-1.934-.495-.816 3.203-1.461-.387.795-3.203-1.934-.494-.795 3.181-3.847-.989s-.322 1.612-.472 2c0 0 .386.085.816.214.28.086 1.655.237 1.204 1.934-.258.968-1.762 7.394-1.892 7.824-.128.516-.257.795-.902.666l-1.547-.344-.967 2.3c.344.129 1.569.408 3.868.989l-.817 3.18 1.934.495.795-3.181 1.461.387-.795 3.18 1.934.495.817-3.224c2.234.409 3.524.28 3.846.236 1.87-.343 2.665-1.783 3.008-3.159.967-3.869-2.213-4.213-1.805-4.298 1.784-.366 2.643-2.064 2.536-3.59l.902-.494.108-.064.107.064a12.574 12.574 0 0 0 5.179 1.461 8.381 8.381 0 0 0 3.76-.709c.172-.064.322-.15.473-.236 4.534-2.45 5.135-8.404 5.178-9.07L42 8.229l-.494-.365ZM21.737 25.036c-.537 2.107-4.104 1.053-4.104 1.053l-1.697-.43 1.053-4.233 2.02.515c.021 0 3.33.731 2.728 3.095Zm.645-6.297c-.494 1.934-3.46 1.032-3.46 1.032l-1.418-.366.967-3.868 1.698.43c0 .02 2.772.601 2.213 2.772Zm17.362-9.091v.021c-.322 1.762-1.246 4.922-3.89 6.34l-.064.043c-.945.473-2.02.71-3.072.645a8.663 8.663 0 0 1-2.343-.43l-.558-.172.515-.279 2.75-1.462a1.071 1.071 0 0 0 .581-.924c0-.15-.021-.322-.086-.451-.021-.043-.021-.064-.043-.107l-.021-.022a1.088 1.088 0 0 0-1.462-.43l-2.707 1.462-.58.236.172-.559c.387-1.31 1.182-3.009 2.729-4.105.172-.129.365-.236.558-.344a6.396 6.396 0 0 1 3.331-.709c1.332.065 2.643.387 3.868.924.064.022.129.043.172.086l.172.086-.022.15Z"/></svg>
